X:345
T: Mamma's Pet
S: J.O'Brien: "Irish Folk Dance Music"
Z: B.Black
M: 4/4
L: 1/8
R: reel
K: Ador
(3GAG (3FGF EDEF | G2 BG dGBG | (3GAG FG EFGA |\
Beed BA A2 |
(3GAG (3FGF EDEF | G2 BG dGBG | (3GAG FG EFGA |\
Beed BA A2 :|
eA (3cBA eA (3cBA | G2 BG dGBG | eA (3cBA eA (3cBA |\
(3Bcd ed BA A2 |
eA (3cBA eA (3cBA | G2 BG dGBG | efed BAGA |\
(3Bcd ed BA A2 :|
